snap/Costumes/star3-a.svg

<svg version="1.1" width="299" height="240" viewBox="180 119 299 240" xmlns="http://www.w3.org/2000/svg" xmlns:xlink="http://www.w3.org/1999/xlink">
  <!-- Exported by Scratch - http://scratch.mit.edu/ -->
  <g id="ID0.044690589886158705" transform="matrix(0.9024999737739563, 0, 0, 0.9024999737739563, -162.6, -107.6)">
    <path id="ID0.37017031107097864" fill="#FFFFFF" stroke="#FCDD5C" stroke-width="2" stroke-linecap="round" d="M 252.850 210.500 L 209.650 167.900 L 270.150 167.900 L 227.250 210.250 L 227.400 149 L 270.500 192.500 L 209.500 192.700 L 252.700 149.200 L 252.700 209.500 Z " transform="matrix(1.7971129417419434, 0, 0, 1.7971129417419434, -191.55, -144.1)"/>
    <path id="ID0.37017031107097864" fill="none" stroke="#FCDD5C" stroke-width="4" stroke-linecap="round" d="M 252.850 210.500 L 209.650 167.900 L 270.150 167.900 L 227.250 210.250 L 227.400 149 L 270.500 192.500 L 209.500 192.700 L 252.700 149.200 L 252.700 209.500 Z " transform="matrix(0.6862075924873352, 0, 0, 0.6862075924873352, 75.25, 56.2)"/>
  </g>
</svg>

<?xml version="1.0" encoding="UTF-8" standalone="no"?>
<svg
   xmlns:dc="http://purl.org/dc/elements/1.1/"
   xmlns:cc="http://creativecommons.org/ns#"
   xmlns:rdf="http://www.w3.org/1999/02/22-rdf-syntax-ns#"
   xmlns:svg="http://www.w3.org/2000/svg"
   xmlns="http://www.w3.org/2000/svg"
   xmlns:sodipodi="http://sodipodi.sourceforge.net/DTD/sodipodi-0.dtd"
   xmlns:inkscape="http://www.inkscape.org/namespaces/inkscape"
   version="1.1"
   width="106.72239"
   height="108.24937"
   viewBox="180 119 106.72239 108.24937"
   id="svg114"
   sodipodi:docname="star3-a.svg"
   inkscape:version="0.92.2 5c3e80d, 2017-08-06">
  <metadata
     id="metadata120">
    <rdf:RDF>
      <cc:Work
         rdf:about="">
        <dc:format>image/svg+xml</dc:format>
        <dc:type
           rdf:resource="http://purl.org/dc/dcmitype/StillImage" />
        <dc:title></dc:title>
      </cc:Work>
    </rdf:RDF>
  </metadata>
  <defs
     id="defs118" />
  <sodipodi:namedview
     pagecolor="#ffffff"
     bordercolor="#666666"
     borderopacity="1"
     objecttolerance="10"
     gridtolerance="10"
     guidetolerance="10"
     inkscape:pageopacity="0"
     inkscape:pageshadow="2"
     inkscape:window-width="640"
     inkscape:window-height="480"
     id="namedview116"
     showgrid="false"
     fit-margin-top="0"
     fit-margin-left="0"
     fit-margin-right="0"
     fit-margin-bottom="0"
     inkscape:zoom="0.5"
     inkscape:cx="111.09626"
     inkscape:cy="7.3297708"
     inkscape:window-x="-2"
     inkscape:window-y="-2"
     inkscape:window-maximized="0"
     inkscape:current-layer="svg114" />
  <!-- Exported by Scratch - http://scratch.mit.edu/ -->
  <g
     id="ID0.044690589886158705"
     transform="matrix(0.90249997,0,0,0.90249997,16.996261,11.319596)">
    <path
       id="ID0.37017031107097864"
       d="m 252.85,210.5 -43.2,-42.6 h 60.5 l -42.9,42.35 0.15,-61.25 43.1,43.5 -61,0.2 43.2,-43.5 v 60.3 z"
       transform="matrix(1.7971129,0,0,1.7971129,-191.55,-144.1)"
       inkscape:connector-curvature="0"
       style="fill:#ffffff;stroke:#fcdd5c;stroke-width:2;stroke-linecap:round" />
    <path
       id="path111"
       d="m 252.85,210.5 -43.2,-42.6 h 60.5 l -42.9,42.35 0.15,-61.25 43.1,43.5 -61,0.2 43.2,-43.5 v 60.3 z"
       transform="matrix(0.68620759,0,0,0.68620759,75.25,56.2)"
       inkscape:connector-curvature="0"
       style="fill:none;stroke:#fcdd5c;stroke-width:4;stroke-linecap:round" />
  </g>
</svg>
